X: 305592
M: 6/8
L: 1/8
K: G
ded dBG | Bdd def | gfe dcB | cAA A3 |\
ded dBG | Bdd def | gfg ABc | BGG G2 :|
|: d |\
(gf)g (ag)a | (ba)g (fe)d | (gf)e (dc)B | cAA A2d |\
(gf)g (ag)a | (ba)g (fe)d | (gf)g ABc | BGG G2 :|


